X:1
T:Nun hab ich dich
T:Jacob Regnart
T:Source : Leipzig---Breitkopf & Härtel---R.Eitner---1895. First print : Deursche Lieder mit 3 Stimmen---Nürnberg---D.Gerlach---1576. Editor : André Vierendeels (26/10/17). Notes : Original clefs : G2, C2, C3 Editorial accidentals above the staff
T:Nun hab ich doch
T:©
T:©
C:Jacob Regnart
Z:©
%%score [ 1 2 3 ]
L:1/8
Q:1/4=120
M:2/2
K:F
V:1 treble nm="Soprano 1" snm="S 1"
V:2 treble nm="Soprano 2" snm="S 2"
V:3 treble-8 nm="Tenor" snm="T"
V:1
"^1)" B4 B2 B2 | A6 F2 | G2 A2 B2 c2 | A8 :: d4 d2 d2 | d4 c4 | c2 B2 A2 G2 | A8 :: %8
w: Nun hab ich|doch ein-|mal er- lebt die|Stund,|in de- ren|ich mich|rhü- men mag gut|rund,|
w: Da- her ich|jetzt ohn|al- les trau- ren|bin,|will auch all-|zeit er-|hal- ten sol- chen|Sinn;|
"^-natural" f4 e2 d2 | c4 d4 | c2 B2 A2 A2 | G8 :| %12
w: dasz ich sey|gantz von|Lie- bes- sucht ge-|sund.|
w: mein Lieb und|Leid seind|all zu gleich da-|hin.|
V:2
"^2)""^1)" G4 G2 G2 | F6 D2 | E2 F2 G2 E2 |"^-natural""^#" F8 :: B4 B2 B2 | B4 A4 | A2 G2 F2 G2 | %7
w: Nun hab ich|doch ein-|mal er- lebt die|Stund,|in de- ren|ich mich|rhü- men mag gut|
w: Hie- vor hab|ich ge-|trau- ret spatt und|fru,|auch nicht ein|Stund kön-|ne ge- ha- ben|
 ^F8 :: B4 A2 G2 | A4 B4 | A2 G2 G2 F2 |"^#" G8 :| %12
w: rund,|dasz ich sey|gantz von|Lie- bes- sucht ge-|sund.|
w: Ruh;|ich weisz, dasz|sie nur|hat ge- lacht dar-|zu.|
V:3
"^3)""^1)""^4)" G4 G2 G2 | d6 B2 | c2 d2 e2 c2 |"^b" d8 :: B4 B2 B2 | B4 f4 | f2 g2 d2 e2 | d8 :: %8
w: Nun hab ich|doch ein-|mal er- lebt die|Stund,|in de- ren|ich mich|rhü- men mag gut|rund,|
w: Drumb soll in|Leid kein|Mensch ver- za- gen|nicht,|son- der zu|Gott set-|zen sein zu- ver-|sicht.|
 d4 c2 B2 | A4 G4 | f2 g2 d2 d2 | G8 :| %12
w: dasz ich sey|gantz von|Lie- bes- sucht ge-|sund.|
w: Im sey ge-|danckt, er|hats al- so ge-|richt.|

